static/assets/img/icons/theme/communication/missed-call.svg

<svg height="24" viewBox="0 0 24 24" width="24" xmlns="http://www.w3.org/2000/svg"><g fill="none" fill-rule="evenodd"><path d="m0 0h24v24h-24z" opacity="0"/><g fill="#000"><path d="m6.58578644 8-1.41421356-1.41421356c-.3905243-.39052429-.3905243-1.02368927 0-1.41421356.39052429-.3905243 1.02368927-.3905243 1.41421356 0l1.41421356 1.41421356 1.41421356-1.41421356c.39052429-.3905243 1.02368924-.3905243 1.41421354 0 .3905243.39052429.3905243 1.02368927 0 1.41421356l-1.41421354 1.41421356 1.41421354 1.41421356c.3905243.39052429.3905243 1.02368924 0 1.41421354s-1.02368925.3905243-1.41421354 0l-1.41421356-1.41421354-1.41421356 1.41421354c-.39052429.3905243-1.02368927.3905243-1.41421356 0-.3905243-.3905243-.3905243-1.02368925 0-1.41421354z" opacity=".3"/><path d="m13.0799676 14.7839934 2.2040258-2.2040258c.6087205-.6087205.7596295-1.5386634.3746408-2.3086407l-.1248803-.2497606c-.3849886-.76997729-.2340797-1.6999202.3746409-2.30864072l2.7328041-2.73280409c.1952621-.19526215.5118446-.19526215.7071067 0 .0380007.03800066.0696265.08187913.0936602.12994659l1.1039757 2.2079514c.8445547 1.68910922.5135037 3.72913702-.8218544 5.06449512l-5.9988255 5.9988255c-1.4535395 1.4535395-3.6035608 1.9610907-5.55368872 1.3110481l-2.41447961-.8048266c-.26197166-.0873239-.40355165-.3704839-.31622777-.6324555.02454641-.0736392.06590083-.1405521.12078826-.1954395l2.65127182-2.6512718c.60872052-.6087206 1.53866343-.7596295 2.30864072-.3746409l.2497606.1248803c.7699773.3849887 1.6999202.2340797 2.3086407-.3746408z"/></g></g></svg>

<svg width="24px" height="24px" viewBox="0 0 24 24" version="1.1" xmlns="http://www.w3.org/2000/svg" xmlns:xlink="http://www.w3.org/1999/xlink">
    <title>Icon For Missed-call</title>
    <g stroke="none" stroke-width="1" fill="none" fill-rule="evenodd">
        <rect opacity="0" x="0" y="0" width="24" height="24"></rect>
        <path d="M6.58578644,8 L5.17157288,6.58578644 C4.78104858,6.19526215 4.78104858,5.56209717 5.17157288,5.17157288 C5.56209717,4.78104858 6.19526215,4.78104858 6.58578644,5.17157288 L8,6.58578644 L9.41421356,5.17157288 C9.80473785,4.78104858 10.4379028,4.78104858 10.8284271,5.17157288 C11.2189514,5.56209717 11.2189514,6.19526215 10.8284271,6.58578644 L9.41421356,8 L10.8284271,9.41421356 C11.2189514,9.80473785 11.2189514,10.4379028 10.8284271,10.8284271 C10.4379028,11.2189514 9.80473785,11.2189514 9.41421356,10.8284271 L8,9.41421356 L6.58578644,10.8284271 C6.19526215,11.2189514 5.56209717,11.2189514 5.17157288,10.8284271 C4.78104858,10.4379028 4.78104858,9.80473785 5.17157288,9.41421356 L6.58578644,8 Z" fill="#000000" opacity="0.3"></path>
        <path d="M13.0799676,14.7839934 L15.2839934,12.5799676 C15.8927139,11.9712471 16.0436229,11.0413042 15.6586342,10.2713269 L15.5337539,10.0215663 C15.1487653,9.25158901 15.2996742,8.3216461 15.9083948,7.71292558 L18.6411989,4.98012149 C18.836461,4.78485934 19.1530435,4.78485934 19.3483056,4.98012149 C19.3863063,5.01812215 19.4179321,5.06200062 19.4419658,5.11006808 L20.5459415,7.31801948 C21.3904962,9.0071287 21.0594452,11.0471565 19.7240871,12.3825146 L13.7252616,18.3813401 C12.2717221,19.8348796 10.1217008,20.3424308 8.17157288,19.6923882 L5.75709327,18.8875616 C5.49512161,18.8002377 5.35354162,18.5170777 5.4408655,18.2551061 C5.46541191,18.1814669 5.50676633,18.114554 5.56165376,18.0596666 L8.21292558,15.4083948 C8.8216461,14.7996742 9.75158901,14.6487653 10.5215663,15.0337539 L10.7713269,15.1586342 C11.5413042,15.5436229 12.4712471,15.3927139 13.0799676,14.7839934 Z" fill="#000000"></path>
    </g>
</svg>
